; generated by Slic3r 1.3.1-dev (Build 18ddd3a36dc69d81fb9b7440498bff9e1dde8b7e) on 2025-03-09 at 22:31:08

; external perimeters extrusion width = 0.11mm (0.27mm^3/s)
; perimeters extrusion width = 0.11mm (0.50mm^3/s)
; infill extrusion width = 0.11mm (0.67mm^3/s)
; solid infill extrusion width = 0.11mm (0.17mm^3/s)
; top infill extrusion width = 0.11mm (0.13mm^3/s)

M107
M190 S65 ; set bed temperature and wait for it to be reached
M104 S230 ; set temperature
G28 ; home all axes
G1 Z5 F5000 ; lift nozzle

; Filament gcode

M109 S230 ; set temperature and wait for it to be reached
G21 ; set units to millimeters
G90 ; use absolute coordinates
G1 Z0.400 F7800.000
G1 -2.00000 F2400.00000
G1 X-6.573 Y-5.024 F7800.000
G1 2.00000 F2400.00000
G1 F1260.000
G1 X-0.102 Y-11.212 2.00000
G1 X6.728 Y-17.001 2.00000
G1 X13.893 Y-22.372 2.00000
G1 X21.365 Y-27.304 2.00000
G1 X29.119 Y-31.781 2.00000
G1 X37.127 Y-35.786 2.00000
G1 X45.360 Y-39.305 2.00000
G1 X53.789 Y-42.325 2.00000
G1 X62.384 Y-44.836 2.00000
G1 X71.113 Y-46.829 2.00000
G1 X79.946 Y-48.295 2.00000
G1 X88.850 Y-49.231 2.00000
G1 X97.795 Y-49.633 2.00000
G1 X106.748 Y-49.499 2.00000
G1 X115.676 Y-48.830 2.00000
G1 X124.549 Y-47.628 2.00000
G1 X133.334 Y-45.898 2.00000
G1 X141.999 Y-43.645 2.00000
G1 X150.515 Y-40.878 2.00000
G1 X158.850 Y-37.607 2.00000
G1 X166.974 Y-33.843 2.00000
G1 X174.858 Y-29.601 2.00000
G1 X182.475 Y-24.894 2.00000
G1 X189.797 Y-19.740 2.00000
G1 X196.797 Y-14.157 2.00000
G1 X203.451 Y-8.166 2.00000
G1 X209.735 Y-1.788 2.00000
G1 X215.626 Y4.955 2.00000
G1 X221.103 Y12.038 2.00000
G1 X226.147 Y19.436 2.00000
G1 X230.739 Y27.122 2.00000
G1 X234.863 Y35.069 2.00000
G1 X238.505 Y43.249 2.00000
G1 X241.651 Y51.632 2.00000
G1 X244.290 Y60.188 2.00000
G1 X246.413 Y68.886 2.00000
G1 X248.012 Y77.696 2.00000
G1 X249.081 Y86.585 2.00000
G1 X249.616 Y95.523 2.00000
G1 X249.616 Y104.477 2.00000
G1 X249.081 Y113.414 2.00000
G1 X248.012 Y122.304 2.00000
G1 X246.413 Y131.114 2.00000
G1 X244.290 Y139.812 2.00000
G1 X241.651 Y148.368 2.00000
G1 X238.505 Y156.751 2.00000
G1 X234.863 Y164.931 2.00000
G1 X230.739 Y172.878 2.00000
G1 X226.147 Y180.564 2.00000
G1 X221.103 Y187.962 2.00000
G1 X215.626 Y195.045 2.00000
G1 X209.735 Y201.788 2.00000
G1 X203.451 Y208.166 2.00000
G1 X196.797 Y214.157 2.00000
G1 X189.797 Y219.740 2.00000
G1 X182.475 Y224.894 2.00000
G1 X174.858 Y229.601 2.00000
G1 X166.974 Y233.843 2.00000
G1 X158.850 Y237.607 2.00000
G1 X150.515 Y240.878 2.00000
G1 X141.999 Y243.645 2.00000
G1 X133.334 Y245.898 2.00000
G1 X124.549 Y247.628 2.00000
G1 X115.676 Y248.830 2.00000
G1 X106.748 Y249.499 2.00000
G1 X97.795 Y249.633 2.00000
G1 X88.850 Y249.231 2.00000
G1 X79.946 Y248.295 2.00000
G1 X71.113 Y246.829 2.00000
G1 X62.384 Y244.836 2.00000
G1 X53.789 Y242.325 2.00000
G1 X45.360 Y239.305 2.00000
G1 X37.127 Y235.786 2.00000
G1 X29.119 Y231.781 2.00000
G1 X21.365 Y227.304 2.00000
G1 X13.893 Y222.372 2.00000
G1 X6.728 Y217.001 2.00000
G1 X-0.102 Y211.211 2.00000
G1 X-6.573 Y205.024 2.00000
G1 X-12.663 Y198.460 2.00000
G1 X-18.350 Y191.544 2.00000
G1 X-23.613 Y184.301 2.00000
G1 X-28.433 Y176.755 2.00000
G1 X-32.794 Y168.935 2.00000
G1 X-36.678 Y160.868 2.00000
G1 X-40.074 Y152.583 2.00000
G1 X-42.968 Y144.110 2.00000
G1 X-45.350 Y135.479 2.00000
G1 X-47.211 Y126.721 2.00000
G1 X-48.546 Y117.867 2.00000
G1 X-49.348 Y108.950 2.00000
G1 X-49.616 Y100.000 2.00000
G1 X-49.348 Y91.050 2.00000
G1 X-48.546 Y82.133 2.00000
G1 X-47.211 Y73.279 2.00000
G1 X-45.350 Y64.521 2.00000
G1 X-42.968 Y55.890 2.00000
G1 X-40.074 Y47.417 2.00000
G1 X-36.678 Y39.132 2.00000
G1 X-32.794 Y31.065 2.00000
G1 X-28.433 Y23.245 2.00000
G1 X-23.613 Y15.699 2.00000
G1 X-18.350 Y8.456 2.00000
G1 X-12.663 Y1.540 2.00000
G1 X-6.584 Y-5.013 2.00000
M104 S220 ; set temperature
M140 S55 ; set bed temperature
G1 Z0.500 F7800.000
G1 X-6.819 Y-5.266 F7800.000
G1 F1800.000
G1 X-0.333 Y-11.468 2.00000
G1 X6.513 Y-17.271 2.00000
G1 X13.694 Y-22.654 2.00000
G1 X21.184 Y-27.598 2.00000
G1 X28.956 Y-32.085 2.00000
G1 X36.982 Y-36.099 2.00000
G1 X45.234 Y-39.626 2.00000
G1 X53.683 Y-42.654 2.00000
G1 X62.297 Y-45.170 2.00000
G1 X71.046 Y-47.167 2.00000
G1 X79.899 Y-48.638 2.00000
G1 X88.824 Y-49.576 2.00000
G1 X97.790 Y-49.978 2.00000
G1 X106.763 Y-49.844 2.00000
G1 X115.712 Y-49.173 2.00000
G1 X124.605 Y-47.969 2.00000
G1 X133.411 Y-46.234 2.00000
G1 X142.096 Y-43.976 2.00000
G1 X150.631 Y-41.203 2.00000
G1 X158.985 Y-37.925 2.00000
G1 X167.128 Y-34.152 2.00000
G1 X175.031 Y-29.899 2.00000
G1 X182.665 Y-25.182 2.00000
G1 X190.004 Y-20.016 2.00000
G1 X197.020 Y-14.421 2.00000
G1 X203.690 Y-8.416 2.00000
G1 X209.988 Y-2.023 2.00000
G1 X215.892 Y4.736 2.00000
G1 X221.382 Y11.835 2.00000
G1 X226.437 Y19.250 2.00000
G1 X231.040 Y26.954 2.00000
G1 X235.174 Y34.920 2.00000
G1 X238.825 Y43.118 2.00000
G1 X241.978 Y51.520 2.00000
G1 X244.623 Y60.096 2.00000
G1 X246.751 Y68.814 2.00000
G1 X248.353 Y77.644 2.00000
G1 X249.425 Y86.555 2.00000
G1 X249.961 Y95.513 2.00000
G1 X249.961 Y104.487 2.00000
G1 X249.425 Y113.445 2.00000
G1 X248.353 Y122.356 2.00000
G1 X246.751 Y131.186 2.00000
G1 X244.623 Y139.904 2.00000
G1 X241.978 Y148.480 2.00000
G1 X238.825 Y156.882 2.00000
G1 X235.174 Y165.080 2.00000
G1 X231.040 Y173.046 2.00000
G1 X226.437 Y180.750 2.00000
G1 X221.382 Y188.165 2.00000
G1 X215.892 Y195.264 2.00000
G1 X209.988 Y202.023 2.00000
G1 X203.690 Y208.416 2.00000
G1 X197.020 Y214.421 2.00000
G1 X190.004 Y220.016 2.00000
G1 X182.665 Y225.182 2.00000
G1 X175.031 Y229.899 2.00000
G1 X167.128 Y234.152 2.00000
G1 X158.985 Y237.925 2.00000
G1 X150.631 Y241.203 2.00000
G1 X142.096 Y243.976 2.00000
G1 X133.411 Y246.234 2.00000
G1 X124.605 Y247.969 2.00000
G1 X115.712 Y249.173 2.00000
G1 X106.763 Y249.844 2.00000
G1 X97.790 Y249.978 2.00000
G1 X88.824 Y249.576 2.00000
G1 X79.899 Y248.637 2.00000
G1 X71.046 Y247.167 2.00000
G1 X62.297 Y245.170 2.00000
G1 X53.683 Y242.654 2.00000
G1 X45.234 Y239.626 2.00000
G1 X36.982 Y236.099 2.00000
G1 X28.956 Y232.085 2.00000
G1 X21.184 Y227.598 2.00000
G1 X13.694 Y222.654 2.00000
G1 X6.513 Y217.271 2.00000
G1 X-0.333 Y211.468 2.00000
G1 X-6.819 Y205.266 2.00000
G1 X-12.923 Y198.688 2.00000
G1 X-18.623 Y191.756 2.00000
G1 X-23.898 Y184.495 2.00000
G1 X-28.729 Y176.932 2.00000
G1 X-33.100 Y169.094 2.00000
G1 X-36.994 Y161.008 2.00000
G1 X-40.397 Y152.704 2.00000
G1 X-43.298 Y144.212 2.00000
G1 X-45.685 Y135.561 2.00000
G1 X-47.551 Y126.783 2.00000
G1 X-48.888 Y117.909 2.00000
G1 X-49.693 Y108.970 2.00000
G1 X-49.961 Y100.000 2.00000
G1 X-49.693 Y91.030 2.00000
G1 X-48.888 Y82.091 2.00000
G1 X-47.551 Y73.217 2.00000
G1 X-45.685 Y64.439 2.00000
G1 X-43.298 Y55.788 2.00000
G1 X-40.397 Y47.296 2.00000
G1 X-36.994 Y38.992 2.00000
G1 X-33.100 Y30.906 2.00000
G1 X-28.729 Y23.068 2.00000
G1 X-23.898 Y15.505 2.00000
G1 X-18.623 Y8.244 2.00000
G1 X-12.923 Y1.312 2.00000
G1 X-6.829 Y-5.255 2.00000
G1 Z0.600 F7800.000
G1 X-6.819 Y-5.266 F7800.000
G1 F1800.000
G1 X-0.333 Y-11.468 2.00000
G1 X6.513 Y-17.271 2.00000
G1 X13.694 Y-22.654 2.00000
G1 X21.184 Y-27.598 2.00000
G1 X28.956 Y-32.085 2.00000
G1 X36.982 Y-36.099 2.00000
G1 X45.234 Y-39.626 2.00000
G1 X53.683 Y-42.654 2.00000
G1 X62.297 Y-45.170 2.00000
G1 X71.046 Y-47.167 2.00000
G1 X79.899 Y-48.638 2.00000
G1 X88.824 Y-49.576 2.00000
G1 X97.790 Y-49.978 2.00000
G1 X106.763 Y-49.844 2.00000
G1 X115.712 Y-49.173 2.00000
G1 X124.605 Y-47.969 2.00000
G1 X133.411 Y-46.234 2.00000
G1 X142.096 Y-43.976 2.00000
G1 X150.631 Y-41.203 2.00000
G1 X158.985 Y-37.925 2.00000
G1 X167.128 Y-34.152 2.00000
G1 X175.031 Y-29.899 2.00000
G1 X182.665 Y-25.182 2.00000
G1 X190.004 Y-20.016 2.00000
G1 X197.020 Y-14.421 2.00000
G1 X203.690 Y-8.416 2.00000
G1 X209.988 Y-2.023 2.00000
G1 X215.892 Y4.736 2.00000
G1 X221.382 Y11.835 2.00000
G1 X226.437 Y19.250 2.00000
G1 X231.040 Y26.954 2.00000
G1 X235.174 Y34.920 2.00000
G1 X238.825 Y43.118 2.00000
G1 X241.978 Y51.520 2.00000
G1 X244.623 Y60.096 2.00000
G1 X246.751 Y68.814 2.00000
G1 X248.353 Y77.644 2.00000
G1 X249.425 Y86.555 2.00000
G1 X249.961 Y95.513 2.00000
G1 X249.961 Y104.487 2.00000
G1 X249.425 Y113.445 2.00000
G1 X248.353 Y122.356 2.00000
G1 X246.751 Y131.186 2.00000
G1 X244.623 Y139.904 2.00000
G1 X241.978 Y148.480 2.00000
G1 X238.825 Y156.882 2.00000
G1 X235.174 Y165.080 2.00000
G1 X231.040 Y173.046 2.00000
G1 X226.437 Y180.750 2.00000
G1 X221.382 Y188.165 2.00000
G1 X215.892 Y195.264 2.00000
G1 X209.988 Y202.023 2.00000
G1 X203.690 Y208.416 2.00000
G1 X197.020 Y214.421 2.00000
G1 X190.004 Y220.016 2.00000
G1 X182.665 Y225.182 2.00000
G1 X175.031 Y229.899 2.00000
G1 X167.128 Y234.152 2.00000
G1 X158.985 Y237.925 2.00000
G1 X150.631 Y241.203 2.00000
G1 X142.096 Y243.976 2.00000
G1 X133.411 Y246.234 2.00000
G1 X124.605 Y247.969 2.00000
G1 X115.712 Y249.173 2.00000
G1 X106.763 Y249.844 2.00000
G1 X97.790 Y249.978 2.00000
G1 X88.824 Y249.576 2.00000
G1 X79.899 Y248.637 2.00000
G1 X71.046 Y247.167 2.00000
G1 X62.297 Y245.170 2.00000
G1 X53.683 Y242.654 2.00000
G1 X45.234 Y239.626 2.00000
G1 X36.982 Y236.099 2.00000
G1 X28.956 Y232.085 2.00000
G1 X21.184 Y227.598 2.00000
G1 X13.694 Y222.654 2.00000
G1 X6.513 Y217.271 2.00000
G1 X-0.333 Y211.468 2.00000
G1 X-6.819 Y205.266 2.00000
G1 X-12.923 Y198.688 2.00000
G1 X-18.623 Y191.756 2.00000
G1 X-23.898 Y184.495 2.00000
G1 X-28.729 Y176.932 2.00000
G1 X-33.100 Y169.094 2.00000
G1 X-36.994 Y161.008 2.00000
G1 X-40.397 Y152.704 2.00000
G1 X-43.298 Y144.212 2.00000
G1 X-45.685 Y135.561 2.00000
G1 X-47.551 Y126.783 2.00000
G1 X-48.888 Y117.909 2.00000
G1 X-49.693 Y108.970 2.00000
G1 X-49.961 Y100.000 2.00000
G1 X-49.693 Y91.030 2.00000
G1 X-48.888 Y82.091 2.00000
G1 X-47.551 Y73.217 2.00000
G1 X-45.685 Y64.439 2.00000
G1 X-43.298 Y55.788 2.00000
G1 X-40.397 Y47.296 2.00000
G1 X-36.994 Y38.992 2.00000
G1 X-33.100 Y30.906 2.00000
G1 X-28.729 Y23.068 2.00000
G1 X-23.898 Y15.505 2.00000
G1 X-18.623 Y8.244 2.00000
G1 X-12.923 Y1.312 2.00000
G1 X-6.829 Y-5.255 2.00000
M106 S173.4
G1 Z0.700 F7800.000
G1 X-6.819 Y-5.266 F7800.000
G1 F1800.000
G1 X-0.333 Y-11.468 2.00000
G1 X6.513 Y-17.271 2.00000
G1 X13.694 Y-22.654 2.00000
G1 X21.184 Y-27.598 2.00000
G1 X28.956 Y-32.085 2.00000
G1 X36.982 Y-36.099 2.00000
G1 X45.234 Y-39.626 2.00000
G1 X53.683 Y-42.654 2.00000
G1 X62.297 Y-45.170 2.00000
G1 X71.046 Y-47.167 2.00000
G1 X79.899 Y-48.638 2.00000
G1 X88.824 Y-49.576 2.00000
G1 X97.790 Y-49.978 2.00000
G1 X106.763 Y-49.844 2.00000
G1 X115.712 Y-49.173 2.00000
G1 X124.605 Y-47.969 2.00000
G1 X133.411 Y-46.234 2.00000
G1 X142.096 Y-43.976 2.00000
G1 X150.631 Y-41.203 2.00000
G1 X158.985 Y-37.925 2.00000
G1 X167.128 Y-34.152 2.00000
G1 X175.031 Y-29.899 2.00000
G1 X182.665 Y-25.182 2.00000
G1 X190.004 Y-20.016 2.00000
G1 X197.020 Y-14.421 2.00000
G1 X203.690 Y-8.416 2.00000
G1 X209.988 Y-2.023 2.00000
G1 X215.892 Y4.736 2.00000
G1 X221.382 Y11.835 2.00000
G1 X226.437 Y19.250 2.00000
G1 X231.040 Y26.954 2.00000
G1 X235.174 Y34.920 2.00000
G1 X238.825 Y43.118 2.00000
G1 X241.978 Y51.520 2.00000
G1 X244.623 Y60.096 2.00000
G1 X246.751 Y68.814 2.00000
G1 X248.353 Y77.644 2.00000
G1 X249.425 Y86.555 2.00000
G1 X249.961 Y95.513 2.00000
G1 X249.961 Y104.487 2.00000
G1 X249.425 Y113.445 2.00000
G1 X248.353 Y122.356 2.00000
G1 X246.751 Y131.186 2.00000
G1 X244.623 Y139.904 2.00000
G1 X241.978 Y148.480 2.00000
G1 X238.825 Y156.882 2.00000
G1 X235.174 Y165.080 2.00000
G1 X231.040 Y173.046 2.00000
G1 X226.437 Y180.750 2.00000
G1 X221.382 Y188.165 2.00000
G1 X215.892 Y195.264 2.00000
G1 X209.988 Y202.023 2.00000
G1 X203.690 Y208.416 2.00000
G1 X197.020 Y214.421 2.00000
G1 X190.004 Y220.016 2.00000
G1 X182.665 Y225.182 2.00000
G1 X175.031 Y229.899 2.00000
G1 X167.128 Y234.152 2.00000
G1 X158.985 Y237.925 2.00000
G1 X150.631 Y241.203 2.00000
G1 X142.096 Y243.976 2.00000
G1 X133.411 Y246.234 2.00000
G1 X124.605 Y247.969 2.00000
G1 X115.712 Y249.173 2.00000
G1 X106.763 Y249.844 2.00000
G1 X97.790 Y249.978 2.00000
G1 X88.824 Y249.576 2.00000
G1 X79.899 Y248.637 2.00000
G1 X71.046 Y247.167 2.00000
G1 X62.297 Y245.170 2.00000
G1 X53.683 Y242.654 2.00000
G1 X45.234 Y239.626 2.00000
G1 X36.982 Y236.099 2.00000
G1 X28.956 Y232.085 2.00000
G1 X21.184 Y227.598 2.00000
G1 X13.694 Y222.654 2.00000
G1 X6.513 Y217.271 2.00000
G1 X-0.333 Y211.468 2.00000
G1 X-6.819 Y205.266 2.00000
G1 X-12.923 Y198.688 2.00000
G1 X-18.623 Y191.756 2.00000
G1 X-23.898 Y184.495 2.00000
G1 X-28.729 Y176.932 2.00000
G1 X-33.100 Y169.094 2.00000
G1 X-36.994 Y161.008 2.00000
G1 X-40.397 Y152.704 2.00000
G1 X-43.298 Y144.212 2.00000
G1 X-45.685 Y135.561 2.00000
G1 X-47.551 Y126.783 2.00000
G1 X-48.888 Y117.909 2.00000
G1 X-49.693 Y108.970 2.00000
G1 X-49.961 Y100.000 2.00000
G1 X-49.693 Y91.030 2.00000
G1 X-48.888 Y82.091 2.00000
G1 X-47.551 Y73.217 2.00000
G1 X-45.685 Y64.439 2.00000
G1 X-43.298 Y55.788 2.00000
G1 X-40.397 Y47.296 2.00000
G1 X-36.994 Y38.992 2.00000
G1 X-33.100 Y30.906 2.00000
G1 X-28.729 Y23.068 2.00000
G1 X-23.898 Y15.505 2.00000
G1 X-18.623 Y8.244 2.00000
G1 X-12.923 Y1.312 2.00000
G1 X-6.829 Y-5.255 2.00000
G1 Z0.800 F7800.000
G1 X-6.819 Y-5.266 F7800.000
G1 F1800.000
G1 X-0.333 Y-11.468 2.00000
G1 X6.513 Y-17.271 2.00000
G1 X13.694 Y-22.654 2.00000
G1 X21.184 Y-27.598 2.00000
G1 X28.956 Y-32.085 2.00000
G1 X36.982 Y-36.099 2.00000
G1 X45.234 Y-39.626 2.00000
G1 X53.683 Y-42.654 2.00000
G1 X62.297 Y-45.170 2.00000
G1 X71.046 Y-47.167 2.00000
G1 X79.899 Y-48.638 2.00000
G1 X88.824 Y-49.576 2.00000
G1 X97.790 Y-49.978 2.00000
G1 X106.763 Y-49.844 2.00000
G1 X115.712 Y-49.173 2.00000
G1 X124.605 Y-47.969 2.00000
G1 X133.411 Y-46.234 2.00000
G1 X142.096 Y-43.976 2.00000
G1 X150.631 Y-41.203 2.00000
G1 X158.985 Y-37.925 2.00000
G1 X167.128 Y-34.152 2.00000
G1 X175.031 Y-29.899 2.00000
G1 X182.665 Y-25.182 2.00000
G1 X190.004 Y-20.016 2.00000
G1 X197.020 Y-14.421 2.00000
G1 X203.690 Y-8.416 2.00000
G1 X209.988 Y-2.023 2.00000
G1 X215.892 Y4.736 2.00000
G1 X221.382 Y11.835 2.00000
G1 X226.437 Y19.250 2.00000
G1 X231.040 Y26.954 2.00000
G1 X235.174 Y34.920 2.00000
G1 X238.825 Y43.118 2.00000
G1 X241.978 Y51.520 2.00000
G1 X244.623 Y60.096 2.00000
G1 X246.751 Y68.814 2.00000
G1 X248.353 Y77.644 2.00000
G1 X249.425 Y86.555 2.00000
G1 X249.961 Y95.513 2.00000
G1 X249.961 Y104.487 2.00000
G1 X249.425 Y113.445 2.00000
G1 X248.353 Y122.356 2.00000
G1 X246.751 Y131.186 2.00000
G1 X244.623 Y139.904 2.00000
G1 X241.978 Y148.480 2.00000
G1 X238.825 Y156.882 2.00000
G1 X235.174 Y165.080 2.00000
G1 X231.040 Y173.046 2.00000
G1 X226.437 Y180.750 2.00000
G1 X221.382 Y188.165 2.00000
G1 X215.892 Y195.264 2.00000
G1 X209.988 Y202.023 2.00000
G1 X203.690 Y208.416 2.00000
G1 X197.020 Y214.421 2.00000
G1 X190.004 Y220.016 2.00000
G1 X182.665 Y225.182 2.00000
G1 X175.031 Y229.899 2.00000
G1 X167.128 Y234.152 2.00000
G1 X158.985 Y237.925 2.00000
G1 X150.631 Y241.203 2.00000
G1 X142.096 Y243.976 2.00000
G1 X133.411 Y246.234 2.00000
G1 X124.605 Y247.969 2.00000
G1 X115.712 Y249.173 2.00000
G1 X106.763 Y249.844 2.00000
G1 X97.790 Y249.978 2.00000
G1 X88.824 Y249.576 2.00000
G1 X79.899 Y248.637 2.00000
G1 X71.046 Y247.167 2.00000
G1 X62.297 Y245.170 2.00000
G1 X53.683 Y242.654 2.00000
G1 X45.234 Y239.626 2.00000
G1 X36.982 Y236.099 2.00000
G1 X28.956 Y232.085 2.00000
G1 X21.184 Y227.598 2.00000
G1 X13.694 Y222.654 2.00000
G1 X6.513 Y217.271 2.00000
G1 X-0.333 Y211.468 2.00000
G1 X-6.819 Y205.266 2.00000
G1 X-12.923 Y198.688 2.00000
G1 X-18.623 Y191.756 2.00000
G1 X-23.898 Y184.495 2.00000
G1 X-28.729 Y176.932 2.00000
G1 X-33.100 Y169.094 2.00000
G1 X-36.994 Y161.008 2.00000
